X:1
T:8. Le colosse
L:1/8
Q:120
M:4/4
K:Ab
F/2=E/2 F/2=E/2 FC F/2=E/2 F/2=E/2 FC | AG F2 Ac A2 | G4 A>A c2 | dc A2 G4 |
F/2=E/2 F/2=E/2 FC F/2=E/2 F/2=E/2 FC | AG F2 Ac A2 | G4 A>A c2 | dc A2 G4 |
|: F/2=E/2 F/2=E/2 Fc A/2=E/2 A/2=E/2 AC | AG F2 Ac A2 | G4 A>A c2 | dc A2 G4 |
F/2=E/2 F/2=E/2 FC F/2=E/2 F/2=E/2 FC | AG F2 Ac A2 | G4 A>A c2 | dc A2 G4 :